X:1
T:Title
%%score { ( 1 5 ) | ( 2 3 4 ) }
L:1/8
M:6/8
K:D
V:1 treble nm="Grand Piano"
V:5 treble 
V:2 bass 
V:3 bass 
V:4 bass 
V:1
 z3 z2[Q:1/4=78] A | [FA]2 [FA]/A/ [DF]GA | [GB]A^G [FA]2 [FA] | [Gc]2 B/A/ [EG]FG | %4
 [CB][CA][EG] [A,DF]2 A | [FA]2 [FA]/A/ [DF]GA | [GB]A^G [FA]2 [DF] | [DE]2 ^G/A/ [DB]Bd | %8
[M:13/16] z/ z/ z/ z/ z A/-A/-A/-A-<A |[M:3/4] [DFA][A,DF] [A,EG][DFA] BA | G6 | %11
 [Gc]4[K:bass][K:treble] z2 | A,2 z2 z [DFA] | [DGB]2 [DGB]/[DGB]/[DBd] [DAc][DGB] | %14
 [DFA][DGB] [DFA] [A,DF]2 [A,DF]/[A,DF]/ | A4 z2 |[M:5/8] [A,DF]-[A,DF]- [A,DF]3 |] %17
V:2
 z3 z2 F | D,,.F,,>F z[K:treble] EF | z[K:treble] F=F[K:bass] D,,F,,D,, | %3
 z2[K:treble] G/F/[K:bass] z DE | A,3 z3 | D,,.F,,>F z .E2 | z[K:treble] F=F[K:bass] [D,,D,]3 | %7
 z2 D/D/ z[K:treble] DF |[M:13/16][K:bass] E,/-E,/-E,-<E,.E,3/2 z/ z/ z | %9
[M:3/4] D,D, D,D,[K:treble] GF | [A,,E,][A,,E,] [A,,E,] [A,,E,]3 | %11
 .A,,2 z[K:treble] [A,G] [G,A,C][K:bass][E,A,C] | z2 A,4 | G,2 G,/G,/G, G,G, | D,D, D, D,2 D,/D,/ | %15
 z B, CA,, A,,A,, |[M:5/8] D,-D,- D,3 |] %17
V:3
 x6 | D,3 D,3[K:treble] | [D,,D,]3[K:treble][K:bass] D,3 | [A,,A,]3[K:treble][K:bass] [A,,A,]3 | %4
 A,,B,,C, D,2 F | D,3 D,3 | [D,,D,]3[K:treble][K:bass] z3 | [E,,E,]3 [E,,E,]3[K:treble] | %8
[M:13/16][K:bass] E,,F,,^G,,A,,/-[A,,-F,]/[A,,-G,]/[A,,-A,]<[A,,C] |[M:3/4] x4[K:treble] x2 | x6 | %11
 A,4[K:treble] z2[K:bass] | D,F, z D,2 D, | x6 | x6 | A,,4 z2 |[M:5/8] x5 |] %17
V:4
 x6 | z2 A,, z3[K:treble] | x[K:treble] x2[K:bass] x3 | x2[K:treble] x[K:bass] x3 | x6 | %5
 z2 A,, z3 | x[K:treble] x2[K:bass] x3 | x4[K:treble] x2 |[M:13/16][K:bass] x13/2 | %9
[M:3/4] x4[K:treble] x2 | x6 | x3[K:treble] x2[K:bass] x | x6 | x6 | x6 | x6 |[M:5/8] x5 |] %17
V:5
 x6 | x6 | x6 | x6 | x6 | x6 | x6 | x6 |[M:13/16] [Ec][Ec][DB]C/D/E/F<G |[M:3/4] x6 | CC C C3 | %11
 z[K:bass] C, E,[K:treble]c BG | [DF]6 | x6 | x6 | [A,C]D E[CEG] [DF][A,CG] |[M:5/8] x5 |] %17

